X:41
T: Midwinter Blossom harmony part
C: Harmonization by Jo Anne Rocke
M: 3/4
L: 1/8
K: G
D2| "G"B4 d2 | "Am"c2e2d2 | "C"e4 g2 | "Bm"f2g2a2 | 
"Em"b3a g2 | f4 e2- | "Am"e2 gf e2- | "D"e2d2 BA |
"G"G2 Bc d2 | "Am"c2 g3 d | "C"e2g2e2 |"Bm"f2d2f2|
"Em"e4 d2 | "Am"c4 de | "D7"f2 d3 c | "G"B4 B2 ||
"C"e2 e2 eg | "Bm"f2 d4- | "Em"d2e2B2 | "D"A2 d2 cd |
"C"e2 e2 eg |"Bm"f4 f2 |"Em"g6 | b6 |
"C"g6 | "Bm"f6 | "Am9"c2 e2 cB | "D"A2 d2 BA |
"C"G6 | "D"A4 d2 | "Em"e4 "B7"f2 | "Em"e4 |]
